src/16/actions/format-text-superscript.svg

<svg xmlns="http://www.w3.org/2000/svg" width="16" height="16" viewBox="0 0 16 16">
 <defs>
  <style id="current-color-scheme" type="text/css">
   .ColorScheme-Text { color:#565656; } .ColorScheme-Highlight { color:#5294e2; }
  </style>
 </defs>
 <path style="fill:currentColor" class="ColorScheme-Text" d="M 11 0 L 11 6 L 14 6 C 15.108 6 16 5.108 16 4 C 16 3.1891 15.519125 2.4980938 14.828125 2.1835938 C 14.934125 1.9776938 15 1.7483 15 1.5 C 15 0.669 14.331 0 13.5 0 L 11 0 z M 7 1 L 2 15 L 4.5 15 L 5.5625 12 L 10.4375 12 L 11.5 15 L 14.28125 15 L 9 1 L 7 1 z M 12 1 L 13.5 1 C 13.777 1 14 1.223 14 1.5 C 14 1.777 13.777 2 13.5 2 L 12 2 L 12 1 z M 12 3 L 14 3 C 14.554 3 15 3.446 15 4 C 15 4.554 14.554 5 14 5 L 12 5 L 12 3 z M 8 5 L 9.75 10 L 6.25 10 L 8 5 z"/>
</svg>

<svg xmlns="http://www.w3.org/2000/svg" width="16" height="16"><defs><style id="current-color-scheme" type="text/css"></style></defs><path d="M11 0v6h3c1.108 0 2-.892 2-2 0-.81-.48-1.502-1.172-1.816.106-.206.172-.436.172-.684 0-.831-.669-1.5-1.5-1.5H11zM7 1L2 15h2.5l1.063-3h4.875l1.062 3h2.781L9 1H7zm5 0h1.5a.499.499 0 1 1 0 1H12V1zm0 2h2c.554 0 1 .446 1 1s-.446 1-1 1h-2V3zM8 5l1.75 5h-3.5L8 5z" fill="currentColor" color="#565656"/></svg>
